X:002
T:I Fee'd a Lad at Michaelmas
T:O Can You Labour Lea
B:Johnson's Scots Musical Museum, via...
B:The Popular Songs and Melodies of Scotland
Z:Nigel Gatherer
M:2/4
L:1/8
K:G
G>GGB|A>GAB|G<GGB|e3 g|
G>GGB|A>GAB|G<EE>D|G3|]
<end>
<start>
